public/images/request-success.svg

<svg width="440" height="651" viewBox="0 0 440 651" fill="none" xmlns="http://www.w3.org/2000/svg">
<path opacity="0.1" d="M199.177 167.019C148.121 210.222 113.071 246.911 79.2057 299.619C45.4599 351.988 13.3567 420.159 32.8338 466.24C52.311 512.32 123.368 536.311 181.166 534.303C238.964 532.296 283.284 503.833 347.022 487.184C410.759 470.535 493.914 465.7 536.394 419.844C579.211 374.107 580.774 287.905 548.615 215.27C515.998 142.853 449.877 84.4609 383.346 79.9551C316.596 74.9914 250.112 124.153 199.177 167.019Z" fill="#216DE0"/>
</svg>

<svg width="440" height="651" fill="none" xmlns="http://www.w3.org/2000/svg"><path opacity=".1" d="M199.177 167.019c-51.056 43.203-86.106 79.892-119.971 132.6-33.746 52.369-65.85 120.54-46.372 166.621 19.477 46.08 90.534 70.071 148.332 68.063 57.798-2.007 102.118-30.47 165.856-47.119 63.737-16.649 146.892-21.484 189.372-67.34 42.817-45.737 44.38-131.939 12.221-204.574-32.617-72.417-98.738-130.81-165.269-135.315-66.75-4.964-133.234 44.198-184.169 87.064z" fill="#216DE0"/></svg>
